X:1
T:Hallelujah Chorus
T:George Frideric Handel
T:Arranged by Gary Kerr
%%score ( 1 2 ) ( 3 4 ) ( 5 6 ) ( 7 8 )
L:1/8
M:4/4
K:G
V:1 treble-8 nm="I"
V:2 treble-8 
V:3 treble-8 nm="II"
V:4 treble-8 
V:5 treble-8 nm="III"
V:6 treble-8 
V:7 treble-8 nm="IV"
V:8 treble-8 
V:1
 g3 d ed z2 | g3 d ed z g/g/ | gg z g/g/ gg z g | f g2 f g2 z2 | a3 d ba z2 | a3 d ba z a/a/ | %6
 ba z a/a/ ba z a | ba g2 f2 z2 | d4 e2 f2 | gG g3 g f2 | e4 d2 z a/a/ | gf z a/a/ gf z a/a/ | %12
 ba z a/a/ ba z2 | z8 | z8 | z4 z2 z g/g/ | gg z g/g/ gg z g/g/ | gg z g/g/ gg z2 | g4 a2 b2 | %19
 c'c c'3 c' b2 | a4 g2 z g/g/ | fd z f/f/ gg/g/ aa | d2 z g/f/ ee z a | gf ga/g/ ff/f/ af | %24
 z d/d/ gd z f/f/ af | z d/d/ bg z f/f/ gd | z e/e/ aa z f/f/ gg | g2 f2 g2 g2 | g2 g2 g4 | %29
 z4 z2 d2 | d2 c2 B2 A>G | G6 d2 | d2 c2 B2 A>G | G6 b2 | a2 g2 g2 f2 | g3 f g2 g2 | f3 d e2 f2 | %37
 g4 z4 | z8 | z8 | z8 | z8 | z8 | z8 | z4 z2 g2 | d'2 f2 b2 d2 | g2 fe f2 e>d | d4 d2 d2 | d8- | %49
 d8 | z2 d2 d2 d2 | d8- | d8- | d4 g2 g2 | g8- | g8- | g2 g2 a2 a2 | a8- | a8- | a4 b2 b2 | b8- | %61
 b8- | b3 b c'2 c'2 | c'8- | c'3 c' ba bc' | a4 z f ga | d2 z2 z4 | z4 z2 d2 | g2 B2 e2 G2 | %69
 c2 BA B2 A>G | G4 z4 | z2 z g c'b z g | c'b z2 z4 | z2 z g/g/ c'b z g/g/ | c'b z d d2 d2 | %75
 b2 g2 g2 dd | f2 gg g2 f2 | g2 z2 d2 d2 | g2 z d d2 d2 | g2 z2 d2 d2 | g2 z d d2 d2 | %81
 g2 z2 z2 d2 | g2 b2 e2 g2 | c'2 ba a4 | g2 z2 g2 g2 | g2 z g g2 g2 | g2 z g/g/ gg z g/g/ | %87
 gg z g/g/ gg z g/g/ | gg z2 z2 g2 | g6 g2 | g8 |] %91
V:2
 x8 | x8 | x8 | x8 | x8 | x8 | x8 | x8 | x8 | x8 | x8 | x8 | x8 | x8 | x8 | x8 | x8 | x8 | x8 | %19
 x8 | x8 | x8 | x8 | x8 | x8 | x8 | x8 | x8 | z4 z d/d/ BG | cc/c/ ee d2 z2 | x8 | x8 | x8 | x8 | %34
 x8 | x8 | x8 | x8 | x8 | x8 | x8 | x8 | x8 | x8 | x8 | x8 | x8 | x8 | x8 | x8 | x8 | x8 | x8 | %53
 x8 | x8 | x8 | x8 | x8 | x8 | x8 | x8 | x8 | x8 | x8 | x8 | x8 | x8 | x8 | x8 | x8 | x8 | x8 | %72
 x8 | x8 | x8 | x8 | x8 | x8 | x8 | x8 | x8 | x8 | x8 | x8 | x8 | x8 | x8 | x8 | x8 | x8 | x8 |] %91
V:3
 d3 d cB z2 | d3 d cB z d/d/ | ed z d/d/ ed z d | cB AA B2 z2 | d3 d dd z2 | d3 d dd z d/d/ | %6
 dd z d/d/ dd z d | d3 ^c d2 z2 | d4 E2 F2 | GG, G3 G F2 | E4 D2 z d/d/ | dd z d/d/ dd z d/d/ | %12
 dd z d/d/ dd z2 | G4 A2 B2 | cC c3 c B2 | A4 G2 z d/d/ | ed z d/d/ ed z d/d/ | ed z d/d/ ed z2 | %18
 z8 | z4 z2 z d/d/ | cA dd dd/d/ BG | z A/A/ FD z c/B/ Ad/B/ | B2 z e/d/ ^cA d2- | %23
 d2 ^c2 d2 z A/A/ | dB z B/B/ AF z2 | G4 A2 B2 | cC c3 c B2 | A4 Gd/d/ BG | z e ee d4 | z4 z2 B2 | %30
 A2 G2 G2 F2 | G6 B2 | A2 G4 F2 | G6 d2 | d2 G2 B2 A>G | G3 A B2 ^c2 | d3 d c2 c2 | B4 z4 | z8 | %39
 z8 | z8 | z8 | z2 d2 g2 B2 | e2 G2 c2 BA | B2 A>G Gd BG | z A dA z2 z F | Ge d4 ^c2 | %47
 d2 A2 d2 d2 | d8- | d8 | z2 d2 d2 d2 | d8- | d8- | d4 z4 | z2 z d ed z d | ed z d/d/ ed z d/d/ | %56
 ed z2 z4 | z2 z A d^c z A | d^c z A/A/ dc z e/e/ | d^c z2 z4 | z2 z B e^d z B | %61
 e^d z B/B/ ed z B/B/ | e2 B2 z4 | z4 e2 e2 | d3 d d2 d2 | d4 z4 | z4 z B ^cd | GF GA/G/ FA dc | %68
 B3 A G3 G | GF GG G2 F2 | G4 G2 G2 | G2 z d ed z d | ed z G G2 G2 | G2 z d/d/ ed z d/d/ | %74
 ed z2 z2 d2 | g2 d2 e2 G2 | c2 BA A4 | B2 z2 B2 B>c | d2 z B B2 B>c | d2 z2 B2 B2 | %80
 d2 z B B2 B>c | d2 z2 z2 B2 | B2 B2 G2 d2 | A2 dd d4 | d2 z d ed z d | ed z d ed z d | %86
 ed z d/d/ ed z d/d/ | ed z d/d/ ed z d/d/ | ed z2 z2 B2 | c6 c2 | B8 |] %91
V:4
 x8 | x8 | x8 | x8 | x8 | x8 | x8 | x8 | x8 | x8 | x8 | x8 | x8 | x8 | x8 | x8 | x8 | x8 | x8 | %19
 x8 | x8 | x8 | x8 | x8 | x8 | x8 | x8 | x8 | z4 z B/B/ GD | GG/G/ cc B2 z2 | x8 | x8 | x8 | x8 | %34
 x8 | x8 | x8 | x8 | x8 | x8 | x8 | x8 | x8 | x8 | x8 | x8 | x8 | x8 | x8 | x8 | x8 | x8 | x8 | %53
 x8 | x8 | x8 | x8 | x8 | x8 | x8 | x8 | x8 | x8 | x8 | x8 | x8 | x8 | x8 | x8 | x8 | x8 | x8 | %72
 x8 | x8 | x8 | x8 | x8 | x8 | x8 | x8 | x8 | x8 | x8 | x8 | x8 | x8 | x8 | x8 | x8 | x8 | x8 |] %91
V:5
 B3 G GG z2 | B3 G GG z G/G/ | cB z G/G/ cB z G | A d2 d d2 z2 | F3 A GF z2 | F3 A GF z A/A/ | %6
 GF z A/A/ GF z A | GABG A2 z2 | D4 E2 F2 | GG, G3 G F2 | E4 D2 z D/D/ | BA z A/A/ BA z A/A/ | %12
 GF z A/A/ GF z2 | G4 A2 B2 | cC c3 c B2 | A4 G2 z G/G/ | cB z G/G/ cB z G/G/ | cB z G/G/ cB z2 | %18
 z2 z G/G/ FD z G/G/ | EE z A/A/ FD G2- | G2 F2 GB/B/ eB | D4 E2 F2 | GG, G3 G F2 | E4 DA/A/ FD | %24
 z G/G/ BG z A/A/ FD | G4 A2 B2 | cC c3 c B2 | A4 G3 B | c3 c B4 | z4 z2 G2 | D2 G2 D3 D | D6 G2 | %32
 D2 G2 D2 C>B, | B,6 G2 | A2 c2 D3 D | D3 C D2 G2 | A3 G G2 A2 | B4 z4 | z8 | z4 z2 G2 | %40
 d2 F2 B2 D2 | G2 FE F2 E>D | D2 z2 z D GG | G2 z E AF GG | G2 F2 G2 z2 | z4 z G FD | %46
 B A2 B AA z A | A2 F2 z4 | z2 z A BA z A | BA z A/A/ BA z A/A/ | BA z2 z4 | z2 z A BA z A | %52
 BA z A/A/ BA z A/A/ | BA z2 z4 | z2 z G cB z G | cB z G/G/ cB z G/G/ | cB z2 z4 | z2 z E FE z E | %58
 FE z E/E/ FE z E/E/ | FE z2 z4 | z2 z F GF z F | GF z F/F/ GF z F/F/ | G2 G2 z4 | z4 G2 G2 | %64
 A3 A GF GA | F4 z4 | z D EF B,D D2- | D2 ^C2 D2 z2 | z D GF E3 D | C2 DE D4 | D4 G2 G2 | G8- | %72
 G3 G G2 G2 | G8- | G2 z B B2 G2 | G2 G2 E2 DD | C2 DD D4 | D2 z2 G2 G>A | B2 z G G2 G>A | %79
 B2 z2 G2 G2 | B2 z G G2 G>A | B2 z2 z2 G2 | G2 D2 E2 D2 | F2 GG G2 F2 | B2 z G cB z G | %85
 cB z G cB z G | cB z G/G/ cB z G/G/ | cB z G/G/ cB z G/G/ | cB z2 z2 D2 | E6 E2 | D8 |] %91
V:6
 x8 | x8 | x8 | x8 | x8 | x8 | x8 | x8 | x8 | x8 | x8 | x8 | x8 | x8 | x8 | x8 | x8 | x8 | x8 | %19
 x8 | x8 | x8 | x8 | x8 | x8 | x8 | x8 | x8 | z4 z B,/B,/ DB, | GG/G/ GG G2 z2 | x8 | x8 | x8 | %33
 x8 | x8 | x8 | x8 | x8 | x8 | x8 | x8 | x8 | x8 | x8 | x8 | x8 | x8 | x8 | x8 | x8 | x8 | x8 | %52
 x8 | x8 | x8 | x8 | x8 | x8 | x8 | x8 | x8 | x8 | x8 | x8 | x8 | x8 | x8 | x8 | x8 | x8 | x8 | %71
 x8 | x8 | x8 | x8 | x8 | x8 | x8 | x8 | x8 | x8 | x8 | x8 | x8 | x8 | x8 | x8 | x8 | x8 | x8 | %90
 x8 |] %91
V:7
 G,3 B, CG, z2 | G,3 B, CG, z B,/B,/ | CG, z B,/B,/ CG, z B, | A,G, DD G,2 z2 | D3 F GD z2 | %5
 D3 F GD z F/F/ | GD z F/F/ GD z F | GF D2 D2 z2 | D4 E2 F2 | GG, G3 G F2 | E4 D2 z F/F/ | %11
 GD z F/F/ GD z F/F/ | GD z F/F/ GD z2 | G,4 A,2 B,2 | CC C3 C B,2 | A,4 G,2 z B,/B,/ | %16
 CG, z B,/B,/ CG, z B,/B,/ | CG, z B,/B,/ CG, z2 | z8 | z8 | z2 z D/D/ B,G, z2 | D4 E2 F2 | %22
 GG, G3 G F2 | E4 D2 z D/D/ | B,G, z G/G/ FD z2 | z2 z G/G/ FD z G/G/ | EC z A,/A,/ DD z E/E/ | %27
 CA, D>C G,2 z G/G/ | EC EF G4 | z4 z2 G2 | F2 E2 D2 C>B, | B,6 G2 | F2 E2 D3 C | G,6 G2 | %34
 F2 E2 D2 C>B, | B,3 A, G,2 E2 | D3 B, C2 A,2 | G,3 D G2 B,2 | E2 G,2 C2 B,A, | A,4 G,2 z2 | %40
 z2 z D GG, z B, | E^C D2 z A, G,A, | FD CD B,2 z B, | CG, z2 z2 z C | DD z D B,G, z G | %45
 FD z F GG, z C | E^C DG, A,A, z A, | F2 D2 z4 | z2 z F GD z F | GD z F/F/ GD z F/F/ | GD z2 z4 | %51
 z2 z F GD z F | GD z F/F/ GD z F/F/ | GD z2 z4 | z2 z B, CG, z B, | CG, z B,/B,/ CG, z B,/B,/ | %56
 CG, z2 z4 | z2 z ^C DA, z C | DA, z ^C/C/ DA, z C/C/ | DA, z2 z4 | z2 z ^D EB, z D | %61
 EB, z ^D/D/ EB, z D/D/ | E2 E2 z4 | z4 E2 E2 | F3 F G2 G,2 | D3 E D2 F2 | B,2 D2 G,2 F,F, | %67
 E,4 D2 z2 | z4 z G, CB, | A,2 B,C D2 CD | B,2 G,2 G2 G2 | G2 z B, CG, z B, | CG, z G G2 G2 | %73
 G2 z B,/B,/ CG, z B,/B,/ | CG, z G, G2 B,2 | E2 G,2 C2 B,B, | A,2 G,G, D4 | G,2 z2 G,2 G,2 | %78
 G2 z G, G,2 G,2 | G2 z2 G,2 G,2 | G2 z G, G,2 G,2 | G2 z G, G2 B,2 | E2 G,2 C2 B,B, | %83
 A,2 G,G, D4 | G,2 z B, CG, z B, | CG, z B, CG, z B, | CG, z B,/B,/ CG, z B,/B,/ | %87
 CG, z B,/B,/ CG, z B,/B,/ | CG, z2 z2 G,2 | C6 C2 | G,8 |] %91
V:8
 x8 | x8 | x8 | x8 | x8 | x8 | x8 | x8 | x8 | x8 | x8 | x8 | x8 | x8 | x8 | x8 | x8 | x8 | x8 | %19
 x8 | x8 | x8 | x8 | x8 | x8 | x8 | x8 | x8 | z4 z G,/G,/ G,G, | EE/E/ CC G2 z2 | x8 | x8 | x8 | %33
 x8 | x8 | x8 | x8 | x8 | x8 | x8 | x8 | x8 | x8 | x8 | x8 | x8 | x8 | x8 | x8 | x8 | x8 | x8 | %52
 x8 | x8 | x8 | x8 | x8 | x8 | x8 | x8 | x8 | x8 | x8 | x8 | x8 | x8 | x8 | x8 | x8 | x8 | x8 | %71
 x8 | x8 | x8 | x8 | x8 | x8 | x8 | x8 | x8 | x8 | x8 | x8 | x8 | x8 | x8 | x8 | x8 | x8 | x8 | %90
 x8 |] %91

